X:6
T:The Yellow Joak
B:John of the Greeny Cheshire Way
M:3/2
L:1/8
K:D
D2 F2 G2 | A4 d4 dc B2 | c2 e4 E2 F2 G2 | A4 f4 F3 G | A2 d4 :: 
f2 g2 f2 | e4 d4 dc B2 | c2 e4 A2 d2 e2 | f4 a4 F3 G | A2 d4 :|]
